libs/ui/packages/crypto-icons/src/svg/NPXS.svg

<svg width="24" height="24" viewBox="0 0 24 24" fill="none">
<path d="M11.9929 3.01721C7.04289 3.01721 3.01389 7.04621 3.01389 11.9962C3.01389 16.9462 7.04289 20.9827 12.0004 20.9827C16.9571 20.9827 20.9861 16.9537 20.9861 11.9962C20.9861 7.03946 16.9504 3.01721 11.9936 3.01721H11.9929ZM11.9929 20.2897C7.42389 20.2897 3.69939 16.5727 3.69939 11.9962C3.70689 7.42721 7.42389 3.70946 11.9929 3.70946C16.5626 3.70946 20.2871 7.42721 20.2871 12.0037C20.2871 16.5727 16.5694 20.2905 11.9929 20.2905V20.2897Z" fill="#F5D100"/>
<path d="M7.34442 8.00926L8.00442 7.34851L11.5204 10.8638L10.8597 11.5238L7.34442 8.00926ZM12.4579 13.125L13.1187 12.4643L16.6339 15.9795L15.9732 16.6395L12.4579 13.125ZM11.3367 11.9985L11.9967 11.3385L12.6627 12.003L12.0027 12.6645L11.3367 11.9985ZM12.4677 10.8923L15.9829 7.37776L16.6429 8.03851L13.1284 11.5538L12.4677 10.8923ZM7.36992 15.9833L10.8844 12.4688L11.5452 13.1288L8.03067 16.644L7.36992 15.9833Z" fill="#F5D100"/>
</svg>

<svg width="24" height="24" viewBox="0 0 24 24" fill="none"><path fill="#f5d100" d="M11.993 3.017c-4.95 0-8.98 4.03-8.98 8.98s4.03 8.986 8.987 8.986 8.986-4.03 8.986-8.987-4.036-8.979-8.992-8.979zm0 17.273c-4.57 0-8.294-3.717-8.294-8.294.008-4.569 3.725-8.287 8.294-8.287s8.294 3.718 8.294 8.295c0 4.569-3.718 8.287-8.294 8.287z"/><path fill="#f5d100" d="m7.344 8.01.66-.661 3.516 3.515-.66.66zm5.114 5.115.66-.66 3.516 3.515-.66.66zm-1.121-1.126.66-.66.666.664-.66.662zm1.13-1.107 3.516-3.514.66.66-3.515 3.516zM7.37 15.983l3.514-3.514.661.66-3.514 3.515z"/></svg>
